assets/img/braze_icons/zoom-out.svg

<svg fill="none" height="24" viewBox="0 0 24 24" width="24" xmlns="http://www.w3.org/2000/svg"><path clip-rule="evenodd" d="m11 2c-4.97056 0-9 4.02944-9 9 0 4.9706 4.02944 9 9 9 2.125 0 4.078-.7365 5.6177-1.9681l3.6751 3.6751c.3905.3905 1.0237.3905 1.4142 0s.3905-1.0237 0-1.4142l-3.6751-3.6751c1.2316-1.5397 1.9681-3.4927 1.9681-5.6177 0-4.97056-4.0294-9-9-9zm-3 8c-.55228 0-1 .4477-1 1s.44772 1 1 1h6c.5523 0 1-.4477 1-1s-.4477-1-1-1z" fill="#801ed7" fill-rule="evenodd"/></svg>

<svg width="24" height="24" viewBox="0 0 24 24" fill="none" xmlns="http://www.w3.org/2000/svg">
<path fill-rule="evenodd" clip-rule="evenodd" d="M11 2C6.02944 2 2 6.02944 2 11C2 15.9706 6.02944 20 11 20C13.125 20 15.078 19.2635 16.6177 18.0319L20.2928 21.707C20.6833 22.0975 21.3165 22.0975 21.707 21.707C22.0975 21.3165 22.0975 20.6833 21.707 20.2928L18.0319 16.6177C19.2635 15.078 20 13.125 20 11C20 6.02944 15.9706 2 11 2ZM8 10C7.44772 10 7 10.4477 7 11C7 11.5523 7.44772 12 8 12H14C14.5523 12 15 11.5523 15 11C15 10.4477 14.5523 10 14 10H8Z" fill="#801ED7"/>
</svg>
